img/ic_simulation.svg

<svg width="24" height="24" fill="none" xmlns="http://www.w3.org/2000/svg"><path d="M18 4h3v11h-3V4zM3 13h3v7H3v-7zm11 1h3v3h-3v-3zm-4 1h3v4h-3v-4zm-3-5h3v4H7v-4z" fill="#fff"/></svg>

<svg width="24" height="24" viewBox="0 0 24 24" fill="none" xmlns="http://www.w3.org/2000/svg">
<path d="M18 4H21V15H18V4ZM3 13H6V20H3V13ZM14 14H17V17H14V14ZM10 15H13V19H10V15ZM7 10H10V14H7V10Z" fill="white"/>
</svg>
